X:2325
T:Flitter daunsey 
C:J Kelly, Baldrine & Mrs Shimmin, Foxdale
C:Traditional
O:Isle of Man
Z:Collected by Mona Douglas
B:Kiaull Vannin #325
L:1/4
M:4/4 
Q:100 
K:G 
cA Ae|cA A B/c/|dc B A |GB E2|cA A e|c AA B/c/|d B AG|A2A2| 
ce e f/g/|a ee f|a ee d|c eB2|ce e f/g/|a e ef/g/|a ed c|B2 A2|| 

